X:1
T:Whispering Hope
T:Whispering Hope
T:Composer・Lyricist:Alice Hawthorne(Septimus Winner　1827-1902)
T:Arranger：K Kobayashi
T:©K Kobayashi 2019
T:©K Kobayashi 2019
T:©K Kobayashi 2019
C:Alice Hawthorne(Septimus Winner)
Z:Alice Hawthorne(Septimus Winner)
Z:©K Kobayashi 2019
%%score [ ( 1 2 ) 3 ] { 4 | 5 }
L:1/8
Q:1/4=176
M:3/4
K:C
V:1 treble nm="S A"
V:2 treble 
V:3 bass nm="T B"
V:4 treble nm="Piano"
V:5 bass 
V:1
 z6 | z6 | z6 | z6 | z6 | z6 | z6 | z6 |:S [EG]3 [EG] [EG]2 | [Ac]2 [GB]2 [FA]2 | [EG]6 | [CE]6 | %12
w: ||||||||1.~Soft as the|voice of an|an-|gel,|
w: ||||||||2.~If, in the|dusk of the|twi-|light,|
w: ||||||||3.~Hope, as an|an- chor so|stead-|fast,|
 [DF]3 [DF] [DF]2 | [FA]2 [EG]2 [DF]2 | [CE]6- | [CE]6 | [CE]3 [CE] [CE]2 | [CE]2 [DF]2 [EG]2 | %18
w: Breath- ing a|les- son un-|heard,||Hope with a|gen- tle per-|
w: Dim be the|re- gion a-|far,||Will not the|deep- en- ing|
w: Rends the dark|veil for the|soul,||Whith- er the|Mas- ter has|
 [FA]6 | [Ac]6 | [EG]3 [EG] [EG]2 | [FB]2 [FA]2 [FB]2 | [Ec]6- | [Ec]6 | [EG]3 [EG] [EG]2 | %25
w: sua-|sion|Whis- pers her|com- fort- ing|word:||Wait till the|
w: dark-|ness|Bright- en the|glim- mer- ing|star?||Then when the|
w: en-|tered,|Rob- bing the|grave of its|goal.||Come then, O|
 [EG]2 [_E_G]2 [DF]2 | [CE]6 | [Ec]6 | [DB]3 [DB] [DB]2 | [DB]2 [Ec]2 [CA]2 | [B,G]6- | G6 | %32
w: dark- ness is|o-|ver,|Wait till the|tem- pest is|done,||
w: night is up-|on|us,|Why should the|heart sink a-|way?||
w: come, glad fru-|i-|tion,|Come to my|sad wear- y|heart;||
 [Ec]3 [Ec] [Ec]2 | [Ac]2 [GB]2 [FA]2 | [EG]6 | [Ec]6 | [CE]3 [CE] [CE]2 | [B,G]2 [B,F]2 [B,D]2 | %38
w: Hope for the|sun- shine to-|mor-|row,|Af- ter the|show- er is|
w: When the dark|mid- night is|o-|ver,|Watch for the|break- ing of|
w: Come, O Thou|blest hope of|glo-|ry,|Nev- er, O|nev- er de-|
 C6- | C6 |"^Refrain" G6- | G2 A2 B2 | c6- | c2 B2 c2 | d6- | d2 [Ec]2 [Fd]2 | e6 | G6 | A6 | %49
w: gone.|||||||||||
w: day.||Whis-|* per- ing|hope,|* oh how|wel-|* come thy|voice,||Mak-|
w: part.|||||||||||
 A2 B2 c2 | G6 | [EG]2 [EG]2 [CE]2 | [B,-F]6 | [B,G]2 [A,G]2 [B,F]2!dacoda! |1 [CE]6- | %55
w: ||||||
w: * ing my|heart|* in its|sor-|* row re-|joice.|
w: ||||||
 [CE]4 z2 :|2 [CE]6- | [CE]4 z2!D.S.! ||O [CE]6- | [CE]4 z2 || z6 | z6 | z6 | z6 |] %64
w: |||||||||
w: |joice.||joice.||||||
w: |||||||||
V:2
 x6 | x6 | x6 | x6 | x6 | x6 | x6 | x6 |: x6 | x6 | x6 | x6 | x6 | x6 | x6 | x6 | x6 | x6 | x6 | %19
 x6 | x6 | x6 | x6 | x6 | x6 | x6 | x6 | x6 | x6 | x6 | x6 | B,6 | x6 | x6 | x6 | x6 | x6 | x6 | %38
 C6- | C6 | F3 F F2 | G2 F2 B2 | (E3 E E2) | E2 x4 | (F3 F F2) | F2 x4 | G3 G G2 | E6 | F3 F F2 | %49
 F2 B2 c2 | E3 E E2 | x6 | x6 | x6 |1 x6 | x6 :|2 x6 | x6 || x6 | x6 || x6 | x6 | x6 | x6 |] %64
V:3
 z6 | z6 | z6 | z6 | z6 | z6 | z6 | z6 |: [C,C]3 [C,C] [C,C]2 | [F,C]2 [F,C]2 [F,C]2 | [C,C]6 | %11
 [C,G,]6 | [G,,G,]3 [G,,G,] [G,,G,]2 | [G,,G,]2 [A,,G,]2 [B,,G,]2 | [C,G,]6- | [C,G,]6 | %16
 [C,G,]3 [C,G,] [C,G,]2 | [C,G,]2 [C,C]2 [C,C]2 | [F,C]6 | [F,A,]6 | [G,C]3 [G,C] [G,C]2 | %21
 [G,D]2 [G,D]2 [G,D]2 | [C,C]6- | [C,C]6 | [C,G,]3 [C,G,] [C,G,]2 | [G,,G,]2 [A,,G,]2 [B,,G,]2 | %26
 [C,G,]6 | [C,G,]6 | [D,G,]3 [D,G,] [D,G,]2 | [D,G,]2 [D,^F,]2 [D,F,]2 | [G,,G,]6- | [G,,G,]6 | %32
 [C,C]3 [C,C] [C,C]2 | [F,C]2 [F,C]2 [F,C]2 | [C,C]6 | [C,G,]6 | [G,,G,]3 [G,,G,] [G,,G,]2 | %37
 [G,,F,]2 [G,,D,]2 [G,,F,]2 | [C,E,]6- | [C,E,]6 | [G,B,]3 [G,B,] [G,B,]2 | [G,B,]2 z2 z2 | %42
 [C,C]3 [C,B,] [C,A,]2 | [C,G,]2 z2 z2 | [G,B,]3 [G,B,] [G,B,]2 | [G,B,]2 [G,A,]2 [G,B,]2 | %46
 [C,C]3 [C,C] [C,C]2 | [C,C]6 | [F,C]3 [F,C] [F,C]2 | [F,C]2 z2 z2 | [C,C]3 [C,C] [C,C]2 | %51
 [C,C]2 [C,C]2 [C,G,]2 | [G,,G,]2 [G,,G,]2 [G,,G,]2 | [G,,D,]2 [G,,D,]2 [G,,G,]2 |1 [C,G,]6- | %55
 [C,G,]4 z2 :|2 [C,G,]6- | [C,G,]4 z2 || [C,G,]6- | [C,G,]4 z2 || z6 | z6 | z6 | z6 |] %64
V:4
 [EG]3 [EG] [EG]2 | [Ac]2 [GB]2 [FA]2 | [EG]6 | [Ec]4 z2 | Bc de fg | a4 Tb2 | c'6 | [ec']4 z2 |: %8
 z2 [G,CE]2 [G,CE]2 | z2 [A,CF]2 [A,CF]2 | z2 [G,CE]2 [G,CE]2 | z2 [G,CE]2 [G,CE]2 | %12
 z2 [G,B,F]2 [G,B,F]2 | z2 [G,B,F]2 [G,B,F]2 | z2 [G,CE]2 [G,CE]2 | z2 [G,CE]2 [G,CE]2 | %16
 z2 [G,CE]2 [G,CE]2 | z2 [DF]2 [EG]2 | z2 [CFA]2 [CFA]2 | [CFA]4 z2 | z2 [CEG]2 [CEG]2 | %21
 z2 [B,FG]2 [B,FG]2 | z2 [CEG]2 [CEG]2 | [G,CE]4 z2 | [EG]2 z [EG] [EG]2 | [EG]2 [_E_G]2 [DF]2 | %26
 C2 E2 G2 | z2 [EGc]2 [EGc]2 | z2 [DGB][DGB] [DGB]2 | z2 [^FA]2 [FA]2 | z2 [B,G]2 [B,G]2 | %31
 z2 [^FA]2 [FB]2 | z2 [Ec]2 [Ec]2 | z2 [GB]2 [FA]2 | z2 [CG]2 [CG]2 | z2 [G,E]2 [G,E]2 | %36
 z2 [G,CE]2 [G,CE]2 | z2 [G,B,F]2 [G,B,F]2 | z2 [G,CE]2 [G,CE]2 | [G,CE]4 z2 | z G, B,F B,G, | %41
 z G, B,F B,G, | z G, CE CG, | z G, CE CG, | z G, B,F B,G, | z G, B,F B,G, | z G, CE CG, | %47
 z G, CE CG, | z A, CF CA, | z A, CF CA, | z G, CE CG, | z G, CE CG, | z G, B,F B,G, | %53
 z G, B,F B,G, |1 z G, CE CG, | z6 :|2 z G, CE CG, | z6 || z G, CE CG, | C4 z2 || Bc de fg | %61
 a4 Tb2 | c'6 | [ec']4 z2 |] %64
V:5
 C,2 [E,G,]2 [E,G,]2 | C,2 [F,A,]2 [F,A,]2 | C,2 [E,G,]2 [E,G,]2 | C,2 [E,G,]2 [E,G,]2 | %4
 G,,2 [D,F,]2 [D,F,]2 | G,,2 [D,F,]2 [D,F,]2 | C,2 [E,G,]2 [E,G,]2 | C,D, E,F, G,2 |: [C,,C,]4 z2 | %9
 [C,,C,]4 z2 | [C,,C,]4 z2 | [C,,C,]4 z2 | G,,4 z2 | G,,4 z2 | [C,,C,]4 z2 | [C,,C,]4 z2 | %16
 [C,,C,]4 z2 | [C,,C,]4 z2 | F,,4 z2 | [F,,F,]6 | G,,4 z2 | G,,4 z2 | [C,,C,]4 z2 | C,D, E,F, G,2 | %24
 C,2 [E,G,]2 [E,G,]2 | B,,2 [D,G,]2 [D,G,]2 | C,2 [E,G,]2 [E,G,]2 | C,4 z2 | D,4 z2 | D,4 z2 | %30
 G,,4 z2 | G,4 z2 | C,4 z2 | C,4 z2 | E,4 z2 | C,4 z2 | G,,4 z2 | G,,4 z2 | C,4 z2 | [C,,C,]4 z2 | %40
 G,,6 | G,,6 | C,6 | C,,6 | G,,6 | G,,6 | C,6 | C,,6 | F,,6 | F,,6 | C,6 | C,,6 | G,,6 | G,,6 |1 %54
 C,6 | C,D, E,F, G,2 :|2 C,6 | C,D, E,F, G,2 || C,6 | [C,,C,]4 z2 || G,,2 [D,F,]4 | G,,2 [D,F,]4 | %62
 [C,E,]6 | C,,4 z2 |] %64

